source/img/about-us/seo-element-2.svg

<svg width="62" height="53" viewBox="0 0 62 53" fill="none" xmlns="http://www.w3.org/2000/svg">
<g clip-path="url(#clip0)">
<path d="M37.3367 16.9338C37.038 16.742 34.6969 15.3078 33.7665 14.8725L32.6135 12.0261C32.9561 11.0849 33.6105 8.44446 33.7129 7.98671C33.8077 7.56233 33.6826 7.11792 33.3816 6.81009L31.5787 4.96642C31.2777 4.65858 30.843 4.53061 30.4281 4.62759C30.0887 4.707 27.4393 5.38606 26.4783 5.75187L23.6948 4.5728C23.2875 3.66235 21.9269 1.32489 21.6792 0.921639C21.453 0.552934 21.0571 0.329102 20.6314 0.329102H18.0816C17.6559 0.329102 17.2601 0.552934 17.0337 0.921639C16.8462 1.22718 15.4438 3.62127 15.0181 4.5728L12.2348 5.75187C11.3144 5.40155 8.7325 4.73228 8.28489 4.62759C7.86991 4.53069 7.43535 4.65866 7.13434 4.96642L5.33144 6.81016C5.03043 7.118 4.9053 7.5624 5.00012 7.98679C5.07777 8.33391 5.74179 11.0433 6.09949 12.0262L4.94655 14.8726C4.05627 15.2891 1.7706 16.6806 1.37628 16.9339C1.01575 17.1653 0.796875 17.5701 0.796875 18.0054V20.613C0.796875 21.0483 1.01575 21.4531 1.37628 21.6846C1.67505 21.8764 4.0161 23.3106 4.94655 23.7459L6.09949 26.5923C5.75694 27.5335 5.10249 30.1739 5.00012 30.6317C4.90537 31.0561 5.03043 31.5005 5.33144 31.8083L7.13434 33.6521C7.43535 33.9599 7.87005 34.0879 8.28489 33.9909C8.62433 33.9115 11.2737 33.2324 12.2348 32.8666L15.0181 34.0457C15.4254 34.9561 16.7861 37.2936 17.0337 37.6968C17.2601 38.0655 17.6559 38.2894 18.0816 38.2894H20.6314C21.0571 38.2894 21.453 38.0655 21.6793 37.6968C21.8668 37.3913 23.2693 34.9972 23.6949 34.0457L26.4783 32.8666C27.3986 33.2169 29.9805 33.8862 30.4281 33.9909C30.8433 34.088 31.2777 33.9599 31.5787 33.6521L33.3816 31.8083C33.6826 31.5005 33.8077 31.0561 33.7129 30.6317C33.6353 30.2846 32.9712 27.5751 32.6135 26.5923L33.7665 23.7459C34.6568 23.3294 36.9424 21.9379 37.3367 21.6846C37.6973 21.4531 37.9161 21.0483 37.9161 20.613V18.0054C37.9161 17.5701 37.6973 17.1653 37.3367 16.9338ZM19.3565 27.5837C14.895 27.5837 11.2653 23.8718 11.2653 19.3092C11.2653 14.7466 14.895 11.0347 19.3565 11.0347C23.818 11.0347 27.4477 14.7467 27.4477 19.3093C27.4477 23.8719 23.818 27.5837 19.3565 27.5837Z" fill="url(#paint0_linear)"/>
</g>
<g clip-path="url(#clip1)">
<path d="M60.8478 36.0154C60.6075 35.8644 58.7245 34.7353 57.9761 34.3927L57.0487 32.1519C57.3242 31.4109 57.8506 29.3323 57.933 28.9719C58.0092 28.6378 57.9086 28.288 57.6665 28.0457L56.2163 26.5943C55.9742 26.3519 55.6246 26.2512 55.2909 26.3275C55.0178 26.39 52.8868 26.9246 52.1138 27.2126L49.8749 26.2844C49.5473 25.5676 48.4529 23.7275 48.2537 23.4101C48.0717 23.1198 47.7533 22.9436 47.4109 22.9436H45.36C45.0176 22.9436 44.6992 23.1198 44.5171 23.4101C44.3663 23.6506 43.2382 25.5353 42.8959 26.2844L40.6571 27.2126C39.9168 26.9368 37.84 26.4099 37.48 26.3275C37.1462 26.2512 36.7967 26.352 36.5546 26.5943L35.1044 28.0457C34.8623 28.2881 34.7616 28.6379 34.8379 28.972C34.9004 29.2453 35.4345 31.3782 35.7222 32.1519L34.7948 34.3927C34.0787 34.7206 32.2402 35.8161 31.9231 36.0154C31.6331 36.1976 31.457 36.5163 31.457 36.859V38.9118C31.457 39.2545 31.6331 39.5732 31.9231 39.7554C32.1634 39.9064 34.0464 41.0354 34.7948 41.3781L35.7222 43.6189C35.4466 44.3599 34.9202 46.4385 34.8379 46.7988C34.7617 47.1329 34.8623 47.4828 35.1044 47.7251L36.5546 49.1766C36.7967 49.4189 37.1463 49.5197 37.48 49.4433C37.753 49.3808 39.8841 48.8462 40.6571 48.5582L42.8959 49.4864C43.2235 50.2032 44.3179 52.0433 44.5171 52.3608C44.6992 52.651 45.0176 52.8272 45.36 52.8272H47.4109C47.7533 52.8272 48.0717 52.651 48.2538 52.3608C48.4046 52.1202 49.5326 50.2355 49.875 49.4864L52.1138 48.5582C52.8541 48.834 54.9308 49.3609 55.2909 49.4433C55.6248 49.5198 55.9742 49.4189 56.2163 49.1766L57.6665 47.7251C57.9086 47.4828 58.0092 47.1329 57.933 46.7988C57.8705 46.5256 57.3364 44.3926 57.0487 43.6189L57.9761 41.3781C58.6922 41.0502 60.5306 39.9548 60.8478 39.7554C61.1378 39.5732 61.3138 39.2545 61.3138 38.9118V36.859C61.3138 36.5163 61.1378 36.1976 60.8478 36.0154ZM46.3854 44.3994C42.7968 44.3994 39.8773 41.4772 39.8773 37.8854C39.8773 34.2936 42.7968 31.3714 46.3854 31.3714C49.974 31.3714 52.8936 34.2936 52.8936 37.8854C52.8936 41.4773 49.974 44.3994 46.3854 44.3994Z" fill="url(#paint1_linear)"/>
</g>
<defs>
<linearGradient id="paint0_linear" x1="32.7195" y1="9.94525" x2="3.69572" y2="26.3376" gradientUnits="userSpaceOnUse">
<stop stop-color="#90D1FF"/>
<stop offset="0.560281" stop-color="#274684"/>
</linearGradient>
<linearGradient id="paint1_linear" x1="57.1339" y1="30.5138" x2="34.0342" y2="43.8438" gradientUnits="userSpaceOnUse">
<stop stop-color="#90D1FF"/>
<stop offset="0.560281" stop-color="#274684"/>
</linearGradient>
<clipPath id="clip0">
<rect width="37.1193" height="37.9604" fill="white" transform="translate(0.796875 0.328125)"/>
</clipPath>
<clipPath id="clip1">
<rect width="29.8569" height="29.8837" fill="white" transform="translate(31.457 22.9426)"/>
</clipPath>
</defs>
</svg>

<svg width="62" height="53" fill="none" xmlns="http://www.w3.org/2000/svg"><g clip-path="url(#clip0)"><path d="M37.337 16.934c-.299-.192-2.64-1.626-3.57-2.062l-1.154-2.846c.343-.941.998-3.582 1.1-4.04a1.285 1.285 0 00-.331-1.176l-1.803-1.844a1.22 1.22 0 00-1.15-.338c-.34.079-2.99.758-3.95 1.124l-2.784-1.18c-.407-.91-1.768-3.247-2.016-3.65a1.23 1.23 0 00-1.048-.593h-2.55c-.425 0-.82.224-1.047.593-.188.305-1.59 2.7-2.016 3.65l-2.783 1.18c-.92-.35-3.502-1.02-3.95-1.124a1.22 1.22 0 00-1.15.338L5.33 6.81A1.285 1.285 0 005 7.987c.077.347.74 3.056 1.098 4.04l-1.152 2.846c-.89.416-3.176 1.808-3.57 2.06-.361.232-.58.637-.58 1.072v2.608c0 .435.219.84.58 1.072.298.191 2.64 1.626 3.57 2.06l1.152 2.847c-.342.942-.997 3.582-1.099 4.04-.095.424.03.868.331 1.176l1.803 1.844a1.22 1.22 0 001.15.339c.34-.08 2.99-.759 3.95-1.124l2.784 1.179c.407.91 1.768 3.248 2.016 3.65.226.37.622.593 1.048.593h2.55c.425 0 .821-.224 1.047-.592.188-.306 1.59-2.7 2.016-3.651l2.783-1.18c.92.35 3.502 1.02 3.95 1.125.415.097.85-.031 1.15-.339l1.804-1.844c.3-.308.426-.752.33-1.176-.077-.347-.74-3.057-1.099-4.04l1.154-2.846c.89-.417 3.175-1.808 3.57-2.061.36-.232.58-.637.58-1.072v-2.608c0-.435-.22-.84-.58-1.071zm-17.98 10.65c-4.462 0-8.092-3.712-8.092-8.275 0-4.562 3.63-8.274 8.091-8.274 4.462 0 8.092 3.712 8.092 8.274 0 4.563-3.63 8.275-8.091 8.275z" fill="url(#paint0_linear)"/></g><g clip-path="url(#clip1)"><path d="M60.848 36.015c-.24-.15-2.123-1.28-2.872-1.622l-.927-2.241c.275-.741.802-2.82.884-3.18a.997.997 0 00-.267-.926l-1.45-1.452a.995.995 0 00-.925-.267c-.273.063-2.404.598-3.177.886l-2.24-.929c-.327-.716-1.421-2.556-1.62-2.874a.995.995 0 00-.843-.466H45.36a.995.995 0 00-.843.466c-.15.24-1.279 2.125-1.621 2.874l-2.239.929c-.74-.276-2.817-.803-3.177-.886a.995.995 0 00-.925.267l-1.45 1.452a.997.997 0 00-.267.926c.062.273.596 2.406.884 3.18l-.927 2.24c-.716.329-2.555 1.424-2.872 1.623a.996.996 0 00-.466.844v2.053c0 .343.176.661.466.843.24.151 2.123 1.28 2.872 1.623l.927 2.24c-.275.742-.802 2.82-.884 3.18a.997.997 0 00.266.927l1.45 1.452a.995.995 0 00.926.266c.273-.062 2.404-.597 3.177-.885l2.239.928c.328.717 1.422 2.557 1.621 2.875.182.29.5.466.843.466h2.05a.996.996 0 00.844-.466c.15-.24 1.279-2.125 1.621-2.875l2.239-.928c.74.276 2.817.803 3.177.885a.994.994 0 00.925-.266l1.45-1.452a.997.997 0 00.267-.926c-.063-.273-.597-2.406-.884-3.18l.927-2.24c.716-.329 2.555-1.424 2.872-1.624.29-.182.466-.5.466-.843v-2.053a.996.996 0 00-.466-.844zM46.385 44.4c-3.588 0-6.508-2.922-6.508-6.514 0-3.591 2.92-6.514 6.508-6.514 3.589 0 6.509 2.923 6.509 6.514 0 3.592-2.92 6.514-6.509 6.514z" fill="url(#paint1_linear)"/></g><defs><linearGradient id="paint0_linear" x1="32.719" y1="9.945" x2="3.696" y2="26.338" gradientUnits="userSpaceOnUse"><stop stop-color="#90D1FF"/><stop offset=".56" stop-color="#274684"/></linearGradient><linearGradient id="paint1_linear" x1="57.134" y1="30.514" x2="34.034" y2="43.844" gradientUnits="userSpaceOnUse"><stop stop-color="#90D1FF"/><stop offset=".56" stop-color="#274684"/></linearGradient><clipPath id="clip0"><path fill="#fff" transform="translate(.797 .328)" d="M0 0h37.119v37.96H0z"/></clipPath><clipPath id="clip1"><path fill="#fff" transform="translate(31.457 22.943)" d="M0 0h29.857v29.884H0z"/></clipPath></defs></svg>
